src/assets/images/header/user-icon.svg

<svg width="18" height="18" viewBox="0 0 18 18" fill="none" xmlns="http://www.w3.org/2000/svg">
<g clip-path="url(#clip0)">
<path d="M8.87173 8.67069C10.0629 8.67069 11.0943 8.24346 11.9372 7.40053C12.7798 6.55774 13.2072 5.52654 13.2072 4.33521C13.2072 3.14429 12.78 2.11295 11.9371 1.26988C11.0941 0.427231 10.0628 0 8.87173 0C7.6804 0 6.6492 0.427231 5.80641 1.27002C4.96362 2.11281 4.53625 3.14415 4.53625 4.33521C4.53625 5.52654 4.96362 6.55788 5.80641 7.40067C6.64948 8.24332 7.68082 8.67069 8.87173 8.67069ZM6.55238 2.01585C7.19907 1.36917 7.95767 1.05483 8.87173 1.05483C9.78566 1.05483 10.5444 1.36917 11.1912 2.01585C11.8379 2.66267 12.1524 3.42142 12.1524 4.33521C12.1524 5.24927 11.8379 6.00787 11.1912 6.6547C10.5444 7.30152 9.78566 7.61586 8.87173 7.61586C7.95795 7.61586 7.19934 7.30138 6.55238 6.6547C5.90556 6.00801 5.59108 5.24927 5.59108 4.33521C5.59108 3.42142 5.90556 2.66267 6.55238 2.01585Z" fill="black"/>
<path d="M16.4577 13.8412C16.4334 13.4904 16.3842 13.1078 16.3118 12.7038C16.2388 12.2968 16.1447 11.912 16.0321 11.5603C15.9156 11.1968 15.7576 10.8378 15.5619 10.4938C15.359 10.1367 15.1206 9.82581 14.8531 9.56996C14.5734 9.30231 14.2309 9.08711 13.8348 8.93015C13.4401 8.774 13.0027 8.6949 12.5349 8.6949C12.3511 8.6949 12.1734 8.77029 11.8302 8.99373C11.619 9.13147 11.372 9.29077 11.0962 9.46697C10.8604 9.6172 10.541 9.75797 10.1464 9.88541C9.76149 10.01 9.37065 10.0731 8.98476 10.0731C8.59914 10.0731 8.2083 10.01 7.82309 9.88541C7.42896 9.7581 7.10939 9.61734 6.87401 9.4671C6.60086 9.29256 6.35367 9.13326 6.1393 8.99359C5.79639 8.77016 5.61868 8.69476 5.43494 8.69476C4.96692 8.69476 4.52966 8.774 4.13512 8.93028C3.73933 9.08698 3.3967 9.30217 3.11668 9.5701C2.84917 9.82608 2.61076 10.1369 2.40807 10.4938C2.21265 10.8378 2.05444 11.1966 1.93799 11.5604C1.82552 11.9121 1.73145 12.2968 1.65839 12.7038C1.58588 13.1073 1.53685 13.49 1.51254 13.8416C1.48865 14.1853 1.47656 14.5431 1.47656 14.9045C1.47656 15.8441 1.77525 16.6048 2.36426 17.1658C2.94598 17.7194 3.71558 18.0001 4.65175 18.0001H13.3189C14.2548 18.0001 15.0244 17.7194 15.6062 17.1658C16.1954 16.6052 16.4941 15.8443 16.4941 14.9044C16.4939 14.5417 16.4817 14.1839 16.4577 13.8412ZM14.8789 16.4015C14.4945 16.7674 13.9842 16.9452 13.3187 16.9452H4.65175C3.98611 16.9452 3.4758 16.7674 3.09155 16.4017C2.71458 16.0428 2.53139 15.553 2.53139 14.9045C2.53139 14.5672 2.54251 14.2342 2.56476 13.9145C2.58646 13.6009 2.63081 13.2563 2.69659 12.8902C2.76155 12.5286 2.84422 12.1892 2.94255 11.882C3.0369 11.5875 3.16557 11.2958 3.32515 11.0148C3.47745 10.747 3.65268 10.5173 3.84604 10.3321C4.0269 10.159 4.25487 10.0172 4.52348 9.91095C4.77191 9.81262 5.0511 9.75879 5.35419 9.75069C5.39113 9.77033 5.45691 9.80782 5.56348 9.87731C5.78032 10.0186 6.03026 10.1798 6.30657 10.3563C6.61803 10.5549 7.0193 10.7342 7.49872 10.889C7.98885 11.0475 8.48873 11.128 8.9849 11.128C9.48107 11.128 9.98108 11.0475 10.4709 10.8891C10.9508 10.7341 11.3519 10.5549 11.6638 10.356C11.9465 10.1753 12.1895 10.0188 12.4063 9.87731C12.5129 9.80795 12.5787 9.77033 12.6156 9.75069C12.9188 9.75879 13.198 9.81262 13.4466 9.91095C13.7151 10.0172 13.943 10.1591 14.1239 10.3321C14.3172 10.5171 14.4925 10.7469 14.6448 11.0149C14.8045 11.2958 14.9333 11.5876 15.0275 11.8819C15.126 12.1895 15.2088 12.5287 15.2736 12.89C15.3393 13.2568 15.3837 13.6015 15.4054 13.9146V13.9149C15.4278 14.2334 15.4391 14.5663 15.4392 14.9045C15.4391 15.5531 15.2559 16.0428 14.8789 16.4015Z" fill="black"/>
</g>
<defs>
<clipPath id="clip0">
<rect width="18" height="18" fill="white"/>
</clipPath>
</defs>
</svg>

<svg width="18" height="18" fill="none" xmlns="http://www.w3.org/2000/svg"><g clip-path="url(#clip0)" fill="#000"><path d="M8.872 8.67a4.195 4.195 0 003.065-1.27 4.195 4.195 0 001.27-3.065c0-1.19-.427-2.222-1.27-3.065A4.196 4.196 0 008.872 0a4.195 4.195 0 00-3.066 1.27 4.195 4.195 0 00-1.27 3.065c0 1.192.428 2.223 1.27 3.066a4.196 4.196 0 003.066 1.27zm-2.32-6.654c.647-.647 1.406-.961 2.32-.961.914 0 1.672.314 2.32.96.646.648.96 1.406.96 2.32 0 .914-.314 1.673-.96 2.32-.648.647-1.406.96-2.32.96a3.137 3.137 0 01-2.32-.96 3.137 3.137 0 01-.96-2.32c0-.914.314-1.672.96-2.32zm9.906 11.825c-.025-.35-.074-.733-.146-1.137a8.954 8.954 0 00-.28-1.144 5.651 5.651 0 00-.47-1.066 4.022 4.022 0 00-.709-.924 3.125 3.125 0 00-1.018-.64 3.52 3.52 0 00-1.3-.235c-.184 0-.362.075-.705.299-.211.137-.458.297-.734.473-.236.15-.555.291-.95.418a3.77 3.77 0 01-1.161.188 3.76 3.76 0 01-1.162-.188 4.194 4.194 0 01-.949-.418c-.273-.174-.52-.334-.735-.473-.343-.224-.52-.3-.704-.3-.468 0-.905.08-1.3.236a3.123 3.123 0 00-1.018.64 4.022 4.022 0 00-.709.924 5.658 5.658 0 00-.47 1.066 8.985 8.985 0 00-.28 1.144c-.072.403-.121.786-.145 1.138-.024.343-.036.701-.036 1.063 0 .94.298 1.7.887 2.26.582.554 1.352.835 2.288.835h8.667c.936 0 1.705-.28 2.287-.834.59-.56.888-1.322.888-2.262 0-.362-.012-.72-.036-1.063zm-1.58 2.56c-.383.366-.894.544-1.56.544H4.653c-.666 0-1.176-.178-1.56-.543-.377-.36-.56-.849-.56-1.498 0-.337.01-.67.033-.99a9.377 9.377 0 01.378-2.032 4.61 4.61 0 01.382-.867c.152-.268.328-.498.521-.683.18-.173.409-.315.677-.421.249-.098.528-.152.831-.16.037.02.103.057.21.126.216.142.466.303.743.48a5.24 5.24 0 001.192.532c.49.159.99.239 1.486.239s.996-.08 1.486-.239c.48-.155.88-.334 1.193-.533.283-.18.526-.337.742-.479.107-.07.173-.107.21-.126.303.008.582.062.83.16.27.106.497.248.678.421.193.185.368.415.52.683.16.28.29.573.383.867.099.308.182.647.247 1.008.065.367.11.711.131 1.025.023.318.034.651.034.99 0 .648-.183 1.138-.56 1.496z"/></g><defs><clipPath id="clip0"><path fill="#fff" d="M0 0h18v18H0z"/></clipPath></defs></svg>
